!!!COM: Felix Mendelssohn
!!!CNT: Deutsch
!!!TXO: Deutsch
!!!OTL: Der Blumenstrauss
!!!LYR: C Klingemann
!!!OPS: Op. 47
!!!ONM: No. 5
!!!ENC: Daniel Alt & Leigh VanHandel
!!!YOR: Sa2mmtliche Lieder fu2r eine Singstimme 
!!!YOR: Neu revidirt von Dr. L. Benda, Ausgabe fu2r mittlere Stimme
!!!YOR: Braunschweig. Henry Litolff's Verlag. Boston and New York: Arthur P. Schmidt.
!!!ODT: 1832/
**kern	**silbe
*staff1	*
=1-	=1
*clefG2	*
*k[f#]	*
*M6/8	*
2.r	.
=2	=2
4r	.
8r	.
4r	.
{8d	{Sie
=3	=3
8d	wan-
8e	-delt
8f#	im
8g	Blu-
8a	|
8b	-men-
=4	=4
4.b	-gar-
4e	-ten
8e	und
=5	=5
8e	must-
8f#	-ert
8g#	den
8a	bun-
8b	|
8cc	-ten
=6	=6
[4.cc	Flor,
8cc]}	|}
8r	.
{8f#	{und
=7	=7
8g	al-
8a	-le
8b	die
8cc	Klei-
8dd	|
8ee	-nen
=8	=8
4.ee	war-
4a	-ten
8b	und
=9	=9
8dd	schau-
8cc	-en
8b	zu
4b	ihr
8a	em-
=10	=10
4.g}	-por.}
4r	.
{8b	{Und
=11	=11
8.b	seid
16b	ihr
8b	denn
8b	Fru2h-
8a#	|
8b	-lings-
=12	=12
4.dd#	-bo-
4b}	-ten,}
{8b	{ver-
=13	=13
8.b	-ku2n-
16b	-dend
8b	was
8b	stets
8a#	|
8b	so
=14	=14
[4.dd#	neu,
8dd#]}	|}
8r	.
{16b	so
16a	|
=15	=15
8.g#	werd-
16g#	-et
8g#	auch
8a	mei-
8b	|
8cc	-ne
=16	=16
4.ee	Bo-
4cc	-ten
8a	an
=17	=17
8cc	ihn,
8b	der
8a	mich
4g	liebt
8f#	so
=18	=18
2.g}	true,}
=19	=19
4r	.
8r	.
{4.g	{an
=20	=20
[2.dd	ihn,
=21	=21
8dd]	|
8cc	|
8b	|
8a	der
8cc	|
8e	mich
=22	=22
[4.g	liebt
8g]	|
8f#	|
16b	so
16a	|
=23	=23
4.g}	treu.}
4r	.
8r	.
==	==
*-	*-
